src/images/icons/soc-7-linked_new.svg

<svg width="40" height="40" viewBox="0 0 40 40" fill="none" xmlns="http://www.w3.org/2000/svg">
<g clip-path="url(#clip0_256_5)">
<path d="M30 40H9.8C4.4 40 0 35.6 0 30.1V9.9C0 4.4 4.4 0 9.8 0H30C35.4 0 39.8 4.4 39.8 9.9V30.2C39.7 35.7 35.4 40 30 40ZM9.8 3C6.1 3 3 6.1 3 9.9V30.1C3 33.8 6.1 37 9.8 37H30C33.7 37 36.7 34 36.8 30.2V9.9C36.9 6.1 33.7 3 30 3H9.8Z" fill="#003067"/>
<path d="M15.9 15.3999H21.3V17.7999L21.4 17.6999C22.1 16.3999 23.2 15.6999 24.6 15.4999C26 15.2999 27.3 15.3999 28.7 15.8999C30.1 16.4999 31.1 17.5999 31.5 18.9999C32 20.2999 32.1 21.5999 32.1 23.0999V31.5999H26.7V23.5999C26.7 22.9999 26.6 22.4999 26.5 21.8999C26.3 20.8999 25.6 20.2999 24.5 20.1999C23.9 20.1999 23.3 20.1999 22.8 20.4999C21.9 20.8999 21.6 21.5999 21.5 22.4999C21.4 23.3999 21.4 24.3999 21.3 25.2999V31.6999H15.9C15.9 31.5999 15.9 15.3999 15.9 15.3999Z" fill="#003067"/>
<path d="M13.2 15.3999V31.5999H7.8V15.3999H13.2Z" fill="#003067"/>
<path d="M10.5 7.19995C12 7.19995 13.1 8.39995 13.1 9.89995C13.1 11.4 11.9 12.5 10.4 12.5C8.9 12.5 7.8 11.3 7.8 9.79995C7.8 8.49995 9 7.19995 10.5 7.19995Z" fill="#003067"/>
</g>
<defs>
<clipPath id="clip0_256_5">
<rect width="39.8" height="40" fill="white"/>
</clipPath>
</defs>
</svg>

<?xml version="1.0" encoding="utf-8"?>
<!-- Generator: Adobe Illustrator 26.3.1, SVG Export Plug-In . SVG Version: 6.00 Build 0)  -->
<svg version="1.1" id="_лой_1" xmlns="http://www.w3.org/2000/svg" xmlns:xlink="http://www.w3.org/1999/xlink" x="0px" y="0px"
	 viewBox="0 0 39.8 40" style="enable-background:new 0 0 39.8 40;" xml:space="preserve">
<style type="text/css">
	.st0{fill:#003067;}
</style>
<path class="st0" d="M30,40H9.8C4.4,40,0,35.6,0,30.1V9.9C0,4.4,4.4,0,9.8,0H30c5.4,0,9.8,4.4,9.8,9.9v20.3C39.7,35.7,35.4,40,30,40
	z M9.8,3C6.1,3,3,6.1,3,9.9v20.2C3,33.8,6.1,37,9.8,37H30c3.7,0,6.7-3,6.8-6.8V9.9C36.9,6.1,33.7,3,30,3H9.8z"/>
<g>
	<path class="st0" d="M15.9,15.4h5.4v2.4l0.1-0.1c0.7-1.3,1.8-2,3.2-2.2c1.4-0.2,2.7-0.1,4.1,0.4c1.4,0.6,2.4,1.7,2.8,3.1
		c0.5,1.3,0.6,2.6,0.6,4.1v8.5h-5.4v-8c0-0.6-0.1-1.1-0.2-1.7c-0.2-1-0.9-1.6-2-1.7c-0.6,0-1.2,0-1.7,0.3c-0.9,0.4-1.2,1.1-1.3,2
		c-0.1,0.9-0.1,1.9-0.2,2.8v6.4h-5.4C15.9,31.6,15.9,15.4,15.9,15.4z"/>
	<path class="st0" d="M13.2,15.4v16.2H7.8V15.4H13.2z"/>
	<path class="st0" d="M10.5,7.2c1.5,0,2.6,1.2,2.6,2.7s-1.2,2.6-2.7,2.6s-2.6-1.2-2.6-2.7C7.8,8.5,9,7.2,10.5,7.2z"/>
</g>
</svg>
